!!!!SEGMENT: pl-wtm--r-1589--004_stefani-jozef--vesperae-de-apostolis-antiphona.krn
!!!cenid: 18xx:2352
!!!COM: Stefani, Józef
!!!COM-rismid: pe30024097
!!!CDT: 1800/04/16-1876/03/19
!!!CNT: Polish
!!!OPR: Vesperae de Apostolis
!!!OTL: Antiphona
!!!OMV: 004
!!!PDT:
!!!AGN: Sacred; Vespers
!!!SMS-siglum: PL-Wtm
!!!SMS-shelfmark: R 1589
!!!SMS-shelfwork: 001-004 M
!!!SMS-variant:
!!!SMS-altvar:
!!!NIFC-rismid: 1001115607
!!!URL-scan: http://repozytorium.nifc.pl/skany/pl-wtm-nut--r1589
!!!ONB-nifc: UWAGA: części: 5 Antyfon (001-005) i Magnificat (006)
!!!OMD: Andantino
**kern	**text	**dynam	**kern	**dynam	**kern	**text	**dynam
*part3	*part3	*part3	*part2	*part2	*part1	*part1	*part1
*staff3	*staff3	*	*staff2	*	*staff1	*staff1	*
*I"[Basso]	*	*	*I"[Tenore 2o]	*	*I"[Tenore 1o\	*	*
*clefF4	*	*	*clefC4	*	*clefC4	*	*
*k[b-]	*	*	*k[b-]	*	*k[b-]	*	*
*F:	*	*	*F:	*	*F:	*	*
*M3/2	*	*	*M3/2	*	*M3/2	*	*
=1	=1	=1	=1	=1	=1	=1	=1
*all\right	*	*	*all\right	*	*all\right	*	*
!	!	!	!	!	!LO:TX:a:t=Antiphona IV	!	!
1r	.	.	1r	.	1r	.	.
*2\right	*	*	*	*	*2\right	*	*
!	!	!LO:DY:rj	!LO:TX:a:i:t=dolce	!	!	!	!LO:DY:rj
2F\	Be-	f	2F/	.	[2A\	Be-	f
=2	=2	=2	=2	=2	=2	=2	=2
2F\	-a-	<	2F/	.	2A\]	-a-	.
*	*	*	*2\right	*	*	*	*
2F\	-ti	.	2A\	.	2c\	-ti	.
4F\	pa-	.	4A\	.	4c\	pa-	.
4F\	-ci-	[[	4A\	.	4f\	-ci-	.
=3	=3	=3	=3	=3	=3	=3	=3
2G\	-fi-	>	2B-\	.	(2e\	-fi-	.
2F\	-ci,	]	2A\	.	2f\)	-ci	.
!	!	!LO:DY:t=p.	!	!	!	!	!LO:DY:t=p.
2F\	be-	p	2A\	.	2c\	be-	p
=4	=4	=4	=4	=4	=4	=4	=4
2F\	-a-	.	2B-\	.	2d\	-a-	.
2F\	-ti	.	2A\	.	2c\	-ti	.
4F\	mun-	.	4F/	.	4A\	mun-	.
4AA/	-do	.	4F/	.	4c\	-do	.
!!LO:PB:g=original
=5	=5	=5	=5	=5	=5	=5	=5
2C/	cor-	.	(4E/	.	(4G/	cor-	.
.	.	.	4F/)	.	4A/)	.	.
2C/	-de:	.	2E/	.	2G/	-de:	.
2r	.	.	2r	.	2r	.	.
=6	=6	=6	=6	=6	=6	=6	=6
!	!	!LO:DY:rj	!	!	!	!	!LO:DY:rj
2.BB-/	quo-	f	2.F/	.	2.d\	quo-	f
4BB-/	-ni-	.	4F/	.	4d\	-ni-	.
2BB-/	-am	.	2G/	.	2e\	-am	.
=7	=7	=7	=7	=7	=7	=7	=7
2AA/	ip-	.	2F/	.	2f\	ip-	.
2AA/	-si	.	2F/	.	2c\	-si	.
4BB-/	De-	.	4B-\	.	4d\	De-	.
4GG/	-um	.	4B-\	.	4g\	-um	.
=8	=8	=8	=8	=8	=8	=8	=8
*	*	*	*^	*	*	*	*
1C	vi-	p	2A/	1ryy	.	(2c\	vi-	p
.	.	.	2F/	.	.	2A\)	-de-	.
2C/	-de-	.	2G/	4F\	.	(4B-\	.	.
.	.	.	.	4E\	.	4c\)	.	.
*	*	*	*v	*v	*	*	*	*
!!LO:LB:g=original
=9	=9	=9	=9	=9	=9	=9	=9
1F	-bunt	.	1F	.	1A	-bunt	.
[2D\	quo-	<	[2F/	.	[2A\	quo-	<
=10	=10	=10	=10	=10	=10	=10	=10
2.D\]	.	.	2.F/]	.	2.A\]	.	.
4D\	-ni-	[[	4F/	.	4A\	-ni-	.
2C/	-am	.	2E/	.	2c\	-am	[
=11	=11	=11	=11	=11	=11	=11	=11
!	!	!LO:DY:rj	!	!	!	!	!LO:DY:rj
1BB-	i-	f	2F/	.	(2d\	i-	f
.	.	.	2G/	.	2e\)	.	.
2AA/	-psi	.	2F/	.	2f\	-psi	.
=12	=12	=12	=12	=12	=12	=12	=12
4BB-/	De-	.	4B-\	.	4d\	De-	.
4GG/	-um	.	4B-\	.	4g\	-um	.
2.C/	vi-	.	(2A\	.	(4c\	vi-	.
.	.	.	.	.	2f\)	.	.
.	.	.	4B- 4G\)	.	.	.	.
4C/	-de-	.	4B- 4G\	.	4e\	-de-	.
=13	=13	=13	=13	=13	=13	=13	=13
!LO:N:vis=1	!	!	!LO:N:vis=1	!	!LO:N:vis=1	!	!
1.F	-bunt.	.	1.A	.	1.f	-bunt.	.
==	==	==	==	==	==	==	==
*-	*-	*-	*-	*-	*-	*-	*-
!!!system-decoration: {s1,s2,s3}
!!!ENC: Marta Lawrence
!!!END: 2021-06-14
!!!ENC: Andrzej Gręziak
!!!END: 2021-06-04
